X:16
T: Die Unbestechliche
N: Q0144A
O: Mitteleuropa, Deutschland
N: Rekonstruktion der fehlenden cf - Stimme aus einem dreistimmigen
N: Satz.
R: Ballade, Liebes - Handel
M: 4/4
L: 1/8
K: G
G4 | G2A2_B2G2 | c4_B4 | A4
A4 | GGA2=F2_B2 | A2G2=F2E2 | D4
G4 | =F2F2G4 | =FGA2_B2c2- | c2dc_BAG2 | A4
=F4 | _B2c2A4 | G4

@@@ Tune index: 1619
